public/images/weather-icons/11d.svg

<svg width="20" height="20" viewBox="0 0 20 20" fill="none" xmlns="http://www.w3.org/2000/svg">
<g id="11d">
<g id="thunder">
<g id="Group">
<g id="clouds">
<g id="back-cloud">
<path id="Vector" d="M13.26 5.17C13.26 3.79 12.15 2.71 10.8 2.71C10.5 2.71 10.23 2.77 9.96001 2.86C9.87001 1.84 9.03001 1 7.98001 1C6.87001 1 5.97001 1.9 5.97001 3.01C5.97001 3.25 6.03001 3.49 6.09001 3.7C6.00001 3.67 5.88001 3.67 5.79001 3.67C4.68001 3.67 3.78001 4.57 3.78001 5.68C3.78001 6.76 4.65001 7.66 5.73001 7.69H10.89C12.21 7.54 13.26 6.49 13.26 5.17Z" fill="url(#paint0_linear)"/>
</g>
<g id="front-cloud">
<path id="Vector_2" d="M17.8 9.74999C17.8 7.44999 15.95 5.64999 13.7 5.64999C13.2 5.64999 12.75 5.74999 12.3 5.89999C12.15 4.19999 10.75 2.79999 9 2.79999C7.15 2.79999 5.65 4.29999 5.65 6.14999C5.65 6.54999 5.75 6.94999 5.85 7.29999C5.7 7.24999 5.5 7.24999 5.35 7.24999C3.5 7.24999 2 8.74999 2 10.6C2 12.4 3.45 13.9 5.25 13.95H13.85C16.05 13.7 17.8 11.95 17.8 9.74999Z" fill="url(#paint1_linear)"/>
</g>
</g>
<g id="lightning">
<path id="Vector_3" d="M8.53532 11H11.51L9.54287 14.4766H11.414L7.19191 19.45L8.82319 15.732H7L8.53532 11Z" fill="url(#paint2_linear)"/>
</g>
</g>
</g>
</g>
<defs>
<linearGradient id="paint0_linear" x1="6.20001" y1="3.3" x2="10.7" y2="7.3" gradientUnits="userSpaceOnUse">
<stop stop-color="#3D26A7"/>
<stop offset="0.784458" stop-color="#1B0D57"/>
</linearGradient>
<linearGradient id="paint1_linear" x1="10.2" y1="14.3" x2="9.95" y2="4.29999" gradientUnits="userSpaceOnUse">
<stop stop-color="#3D26A7"/>
<stop offset="1" stop-color="#1B0D57"/>
</linearGradient>
<linearGradient id="paint2_linear" x1="8.47135" y1="11.1931" x2="8.87628" y2="18.2345" gradientUnits="userSpaceOnUse">
<stop offset="0.0780654" stop-color="#0094FF"/>
<stop offset="1" stop-color="#FA00FF"/>
</linearGradient>
</defs>
</svg>

<svg width="20" height="20" fill="none" xmlns="http://www.w3.org/2000/svg">
    <style>
        @keyframes am-weather-cloud-2 {
            0% {
                -webkit-transform: translate(-3px, 0);
                -moz-transform: translate(-3px, 0);
                -ms-transform: translate(-3px, 0);
                transform: translate(-3px, 0)
            }

            50% {
                -webkit-transform: translate(3px, 0);
                -moz-transform: translate(3px, 0);
                -ms-transform: translate(3px, 0);
                transform: translate(3px, 0)
            }
        }

        @keyframes am-weather-stroke {

            0%,
            12%,
            16%,
            20%,
            24%,
            28%,
            4%,
            40%,
            8% {
                -webkit-transform: translate(0, 0);
                -moz-transform: translate(0, 0);
                -ms-transform: translate(0, 0);
                transform: translate(0, 0)
            }

            10%,
            14%,
            18%,
            2% {
                -webkit-transform: translate(.3px, 0);
                -moz-transform: translate(.3px, 0);
                -ms-transform: translate(.3px, 0);
                transform: translate(.3px, 0)
            }

            6% {
                -webkit-transform: translate(.5px, .4px);
                -moz-transform: translate(.5px, .4px);
                -ms-transform: translate(.5px, .4px);
                transform: translate(.5px, .4px)
            }

            22% {
                -webkit-transform: translate(1px, 0);
                -moz-transform: translate(1px, 0);
                -ms-transform: translate(1px, 0);
                transform: translate(1px, 0)
            }

            26% {
                -webkit-transform: translate(-1px, 0);
                -moz-transform: translate(-1px, 0);
                -ms-transform: translate(-1px, 0);
                transform: translate(-1px, 0)
            }

            65% {
                -webkit-transform: translate(-1px, 2px);
                -moz-transform: translate(-1px, 2px);
                -ms-transform: translate(-1px, 2px);
                transform: translate(-1px, 2px)
            }
        }
    </style>
    <g id="prefix__prefix__prefix__11d">
        <g id="prefix__prefix__prefix__thunder">
            <g id="prefix__prefix__prefix__Group">
                <g id="prefix__prefix__prefix__clouds">
                    <g id="prefix__prefix__prefix__back-cloud"
                        style="-webkit-animation-name:am-weather-cloud-2;-moz-animation-name:am-weather-cloud-2;animation-name:am-weather-cloud-2;-webkit-animation-duration:4s;-moz-animation-duration:4s;animation-duration:4s;-webkit-animation-timing-function:linear;-moz-animation-timing-function:linear;animation-timing-function:linear;-webkit-animation-iteration-count:infinite;-moz-animation-iteration-count:infinite;animation-iteration-count:infinite">
                        <path id="prefix__prefix__prefix__Vector"
                            d="M13.26 5.17a2.452 2.452 0 00-3.3-2.31C9.87 1.84 9.03 1 7.98 1c-1.11 0-2.01.9-2.01 2.01 0 .24.06.48.12.69-.09-.03-.21-.03-.3-.03-1.11 0-2.01.9-2.01 2.01 0 1.08.87 1.98 1.95 2.01h5.16c1.32-.15 2.37-1.2 2.37-2.52z"
                            fill="url(#prefix__prefix__prefix__paint0_linear)" />
                    </g>
                    <g id="prefix__prefix__prefix__front-cloud">
                        <path id="prefix__prefix__prefix__Vector_2"
                            d="M17.8 9.75c0-2.3-1.85-4.1-4.1-4.1-.5 0-.95.1-1.4.25-.15-1.7-1.55-3.1-3.3-3.1a3.35 3.35 0 00-3.35 3.35c0 .4.1.8.2 1.15-.15-.05-.35-.05-.5-.05A3.35 3.35 0 002 10.6c0 1.8 1.45 3.3 3.25 3.35h8.6c2.2-.25 3.95-2 3.95-4.2z"
                            fill="url(#prefix__prefix__prefix__paint1_linear)" />
                    </g>
                </g>
                <g id="prefix__prefix__prefix__lightning">
                    <path id="prefix__prefix__prefix__Vector_3"
                        d="M8.535 11h2.975l-1.967 3.477h1.871L7.192 19.45l1.631-3.718H7L8.535 11z"
                        fill="url(#prefix__prefix__prefix__paint2_linear)"
                        style="-webkit-animation-timing-function:ease-in-out;-moz-animation-timing-function:ease-in-out;-ms-animation-timing-function:ease-in-out;animation-timing-function:ease-in-out;-webkit-animation-name:am-weather-stroke;-moz-animation-name:am-weather-stroke;animation-name:am-weather-stroke;-webkit-animation-duration:1.11s;-moz-animation-duration:1.11s;animation-duration:1.11s;-webkit-animation-iteration-count:infinite;-moz-animation-iteration-count:infinite;animation-iteration-count:infinite" />
                </g>
            </g>
        </g>
    </g>
    <defs>
        <linearGradient id="prefix__prefix__prefix__paint0_linear" x1="6.2" y1="3.3" x2="10.7" y2="7.3"
            gradientUnits="userSpaceOnUse">
            <stop stop-color="#3D26A7" />
            <stop offset=".784" stop-color="#1B0D57" />
        </linearGradient>
        <linearGradient id="prefix__prefix__prefix__paint1_linear" x1="10.2" y1="14.3" x2="9.95" y2="4.3"
            gradientUnits="userSpaceOnUse">
            <stop stop-color="#3D26A7" />
            <stop offset="1" stop-color="#1B0D57" />
        </linearGradient>
        <linearGradient id="prefix__prefix__prefix__paint2_linear" x1="8.471" y1="11.193" x2="8.876" y2="18.235"
            gradientUnits="userSpaceOnUse">
            <stop offset=".078" stop-color="#0094FF" />
            <stop offset="1" stop-color="#FA00FF" />
        </linearGradient>
    </defs>
</svg>
